X:17196
T:The Scholar
M:4/4
A:Ireland
R:Reel
K:D
A2|:"D"dfaf "A"gfeg|"D"fdAG FGAc|"G"BGFG "Em"EGeg|
"D"fdec "A"dcBA|"D"dfaf "A"gfeg|"D"fdAG FGAc|
"G"BGFG "Em"EGeg|[1"A"fdec "D"d2A2:|[2"A"fdec "D"defg||
"D"a2af dfaf|dfaf bagf|"C"g2ge =cege|=cege "A"agfg|
"D"a2af dfaf|dfaf bagf|"G"g2gf gbag|[1"A"fdec "D"defg:|[2"A"fdec "D"d4||
